X:1
T:Von Finnland bis zum Schwarzen Meer
T:Von Finnland bis zum Schwarzen Meer
T:das Rußlandlied
T: Norbert Schultze
T:Heinrich Anacker, Hans Tieszler, u. Hanz-Wilhelm Kulenkampff
C:Herms Niel u. Norbert Schultze
Z:Heinrich Anacker, Hans Tieszler, u. Hanz-Wilhelm Kulenkapmf
%%score { ( 1 3 5 ) | ( 2 4 ) }
L:1/8
M:4/4
K:E
V:1 treble nm="Piano" snm="Pno."
V:3 treble 
V:5 treble 
V:2 bass 
V:4 bass 
V:1
 z[Q:1/4=128] B, | EE/E/ EB, EB,EB, | [EG][EG]/[EG]/ [EG][B,E] [EG][B,E][EG][B,E] | %3
 [EGB][EGB]/[EGB]/ [EGB][B,EG] [G,B,E][B,EG][EGB][GBe] | [Bdf]B[Beg]B [Bdf][Bb]/[Bb]/ [Bb]B | %5
 EE/E/ EB, EB,EB, | [EG][EG]/[EG]/ [EG][B,E] [EG][B,E][EG][B,E] | %7
 [EGB][EGB]/[EGB]/ [EGB][B,EG] [G,B,E][B,EG][EGB][GBe] | [Bdf]B[Beg][Bdf] [GBe]2 z B, | %9
 E3 B, EGBe | [GB]3 [EG] [B,E][EG][GB][Be] | [EBeg]3 [GBe] [EGB][B,EG][G,B,E][B,EG] | %12
 [B,DF] z [Bb]>[Bb] [Bb][B,EG][B,FA][B,DF] | E3 B, EGBe | [GB]3 [EG] [B,E][EG][GB][Be] | %15
 [EBeg]3 [GBe] [EGB][B,EG][G,B,E][B,EG] | [B,DFf][B,B][Gg][Ff] [Ee]2 z z ||[Q:1/4=125] a4 c3 f | %18
 e4 z2 z2 | [EAc][Ee]/[Ee]/ [Ee][Ee] [EGB][Ee]/[Ee]/ [Ee][Ee] | [CEAa]2 [CEA]>[CEA] [CEA]2 E2 || %21
[K:A] [CEA]2 [CE]>[CEA] [EGB]2 [EFA]>[EGB] | [EAc]2 [CEA]3 z [FAd]2 | %23
 [EAc]2 [EB]>[CEA] [DEGB]2 [DEG]>[DEG] | [CEA]2 C>D E2 E2 | [CEA]2 [CE]>[CEA] [EGB]2 [EFA]>[EGB] | %26
 [EAc]2 [CEA]3 z [EAc]2 | [EGB]2 [EGB]>[EGB] [_EAB]2 [EAc][EA^d] | [Ee]4 z2 E2 | %29
 [Cc]3 [B,B] [A,A]2 [A,CE]2 | [A,DF]2 [B,EG]2 [CEA]4 | [EGB]2 E2 z4 | [EAc]2 [CEA]2 z4 | %33
 [FAd]2 [FAd][FAd] [EAc]2 [EB][EA] | [B,EG]2 [^DFA]2 [EGB]2 z2 | [CEA]4 [A,DF]2 [B,EG]2 | %36
 [CEA]2 z2 z4 | [EGB]4 [EFA]2 [EGB]2 | [EAc]2 z2 z4 | [FAd]4 [EAc]2 [EGB]2 | [Ace]6 [FBd]2 | %41
 [EAc]4 [DEGB]4 | [CEA]4 z4 | [cea]4 [Adf]2 [Beg]2 | [cea]2 z2 z4 | [Begb]4 [Aefa]2 [Begb]2 | %46
 [eac']2 z2 z4 | [FAd]4 [EAc]2 [EGB]2 | [Ace]6 [FBd]2 | [EAc]4 [DEGB]4 | %50
 [CEA]2 [A,DFAa]>[A,DFAa] [A,CEAa]2 z2 || a4 c3 f | e4 z2 z2 | %53
 [EAc][Ee]/[Ee]/ [Ee][Ee] [EGB][Ee]/[Ee]/ [Ee][Ee] | [CEAa]2 [CEA]>[CEA] [CEA]2 E2 || %55
 [CEA]2 [CE]>[CEA] [EGB]2 [EFA]>[EGB] | [EAc]2 [CEA]3 z [FAd]2 | %57
 [EAc]2 [EB]>[CEA] [DEGB]2 [DEG]>[DEG] | [CEA]2 C>D E2 E2 | [CEA]2 [CE]>[CEA] [EGB]2 [EFA]>[EGB] | %60
 [EAc]2 [CEA]3 z [EAc]2 | [EGB]2 [EGB]2 [_EAB]2 [EAc][EA^d] | [Ee]4 z2 E2 | %63
 [Cc]3 [B,B] [A,A]2 [A,CE]2 | [A,DF]2 [B,EG]2 [CEA]4 | [EGB]2 E2 z4 | [EAc]2 [CEA]2 z4 | %67
 [FAd]2 [FAd][FAd] [EAc]2 [EB][EA] | [B,EG]2 [^DFA]2 [EGB]2 z2 | [CEA]4 [A,DF]2 [B,EG]2 | %70
 [CEA]2 z2 z4 | [EGB]4 [EFA]2 [EGB]2 | [EAc]2 z2 z4 | [FAd]4 [EAc]2 [EGB]2 | [Ace]6 [FBd]2 | %75
 [EAc]4 [DEGB]4 | [CEA]4 z4 | [cea]4 [Adf]2 [Beg]2 | [cea]2 z2 z4 | [Begb]4 [Aefa]2 [Begb]2 | %80
 [eac']2 z2 z4 | [FAd]4 [EAc]2 [EGB]2 | [Ace]6 [FBd]2 | [EAc]4 [DEGB]4 | %84
 [CEA]2 [A,DFAa]>[A,DFAa] [A,CEAa]2 z2 || z2 [Ace]2 [EAc]2 [Ace]2 | [cea]3 [eac'] [eac']4 | %87
 c2 B>A G2 A2 | [EGBe]2 z2 z2 E2 || [CEA]2 [CE]>[CEA] [EGB]2 [EFA]>[EGB] | [EAc]2 [CEA]3 z [FAd]2 | %91
 [EAc]2 [EB]>[CEA] [DEGB]2 [DEG]>[DEG] | [CEA]2 C>D E2 E2 | [CEA]2 [CE]2 [EGB]2 [EFA]>[EGB] | %94
 [EAc]2 [CEA]3 z [EAc]2 | [EGB]3 [EGB] [_EAc]2 [EA^d]2 | [Ee]4 z2 E2 | [Cc]3 [B,B] [A,A]2 [A,CE]2 | %98
 [A,DF]2 [B,EG]2 [CEA]4 | [EGB]2 E2 z4 | [EAc]2 [CEA]2 z4 | [FAd]2 [FAd][FAd] [EAc]2 [EB][EA] | %102
 [B,EG]2 [^DFA]2 [EGB]2 z2 | [CEA]4 [A,DF]2 [B,EG]2 | [CEA]2 z2 z4 | [EGB]4 [EFA]2 [EGB]2 | %106
 [EAc]2 z2 z4 | [FAd]4 [EAc]2 [EGB]2 | [Ace]6 [FBd]2 | [EAc]4 [DEGB]4 | [CEA]4 z4 | %111
 [cea]4 [Adf]2 [Beg]2 | [cea]2 z2 z4 | [Begb]4 [Aefa]2 [Begb]2 | [eac']2 z2 z4 | %115
 [FAd]4 [EAc]2 [EGB]2 | [Ace]6 [FBd]2 | [EAc]4 [DEGB]4 || %118
[M:6/8][Q:1/8=178]!f! [A,A]4- [A,A][A,A]/[A,A]/ | [A,A]3 [A,CAc]3 | %120
 [FAdf]4- [FAdf]-[FAdf]/[FAdf]/ | [FAdf]3 z z2 | [Dd]4- [Dd][Dd]/[D-d]/ | [Dd]3 [DFdf]3 | %124
 [Bd=gb]4- [Bdgb]-[Bdgb]/[Bdgb]/ | [Bd=gb]4 z2 |"_dim." [Begb]4- [Begb]-[Begb]/[Begb]/ | %127
 [Begb]2 z [EGBe]3 | [ceac']6- | [ceac']6 |] %130
V:2
 z B,, | E,3 B,, E,B,,E,B,, | E,3 B,, E,B,,E,[B,,B,] | [E,E]3 [B,,B,] [E,E][B,,B,][E,G,]E, | %4
 B,, z E, z B,,B,/B,/ B,B,, | E,3 B,, E,B,,E,B,, | E,3 B,, E,B,,E,B,, | %7
 [E,E]3 [B,,B,] [E,E][B,,B,][E,G,]E, | B,, z E,B,, E,2 z B,, | E,E,/E,/ E,B,, E,B,,E,B,, | %10
 E,E,/E,/ E,B,, E,B,,E,B,, | E,E,/E,/ E,B,, E,B,,E,B,, | B,, z B,,>B,, B,, z z B,, | %13
 E,E,/E,/ E,B,, E,B,,E,B,, | E,E,/E,/ E,B,, E,B,,E,B,, | E,E,/E,/ E,B,, E,B,,E,B,, | %16
 B,, z E,B,, E,2 z2 || A,4 [C,C]3 [F,F] | E4 E,2 [=D,,=D,]2 | [E,,E,] z z2 [E,,E,] z z2 | %20
 [A,,A,]2 [A,,A,]>[A,,A,] [A,,A,]2 E,2 ||[K:A] [A,,A,]2 z2 [E,,E,]2 z2 | %22
 [A,,A,]2 C,>D, E,2 [D,,D,]2 | [E,,E,]2 z2 z2 [E,,E,]2 | [A,,A,]2 [C,,C,]>[D,,D,] [E,,E,]2 E,2 | %25
 [A,,A,]2 z2 [G,,G,]2 [F,,F,]>[G,,G,] | [A,,A,]2 z2 [A,,A,]2 z2 | [B,,B,]2 z2 [A,,A,]2 z2 | %28
 [E,,E,]2 z2 z2 [E,,E,]2 | [C,C]3 [B,,B,] [A,,A,]2 [C,,C,]2 | %30
 [D,,D,]2 [B,,,B,,]2 [C,,C,]2 [A,,,A,,]2 | E,,4 z4 | A,,4 z4 | B,,4 A,,4 | B,,2 A,,2 G,,2 z2 | %35
 A,,4 [D,,D,]2 [E,,E,]2 | A,,2 A,,2 C,2 A,,2 | G,,2 G,,2 F,,2 G,,2 | %38
 A,,2 [E,,E,]2 [C,,C,]2 [A,,,A,,]2 | [F,,F,]2 [F,,F,]2 [E,,E,]2 [D,,D,]2 | [C,,C,]6 [D,,D,]2 | %41
 [E,,E,]4 E,,4 | A,,3 A,, C,A,,C,E, | [A,,A,]2 [A,,,A,,]2 [D,,D,]2 [E,,E,]2 | %44
 [A,,,A,,]2 [A,,,A,,]2 [C,,C,]2 [A,,,A,,]2 | [G,,G,]2 [G,,G,]2 [F,,F,]2 [G,,G,]2 | %46
 [A,,A,]2 [E,,E,]2 [C,,C,]2 [A,,,A,,]2 | [F,,F,]2 [F,,F,]2 [E,,E,]2 [D,,D,]2 | [C,,C,]6 [D,,D,]2 | %49
 [E,,E,]4 E,,4 | A,,2 A,,>A,, A,,2 z2 || A,4 [C,C]3 [F,F] | E4 E,2 [D,,D,]2 | %53
 [E,,E,] z z2 [E,,E,] z z2 | [A,,A,]2 [A,,A,]>[A,,A,] [A,,A,]2 E,2 || [A,,A,]2 z2 [E,,E,]2 z2 | %56
 [A,,A,]2 C,>D, E,2 [D,,D,]2 | [E,,E,]2 z2 z2 [E,,E,]2 | [A,,A,]2 [C,,C,]>[D,,D,] [E,,E,]2 E,2 | %59
 [A,,A,]2 z2 [G,,G,]2 [F,,F,]>[G,,G,] | [A,,A,]2 z2 [A,,A,]2 z2 | [B,,B,]2 z2 [A,,A,]2 [B,,B,]2 | %62
 [E,,E,]2 z2 z2 [E,,E,]2 | [C,C]3 [B,,B,] [A,,A,]2 [C,,C,]2 | %64
 [D,,D,]2 [B,,,B,,]2 [C,,C,]2 [A,,,A,,]2 | E,,4 z4 | A,,4 z4 | B,,4 A,,4 | B,,2 A,,2 G,,2 z2 | %69
 A,,4 [D,,D,]2 [E,,E,]2 | A,,2 A,,2 C,2 A,,2 | G,,2 G,,2 F,,2 G,,2 | %72
 A,,2 [E,,E,]2 [C,,C,]2 [A,,,A,,]2 | [F,,F,]2 [F,,F,]2 [E,,E,]2 [D,,D,]2 | [C,,C,]6 [D,,D,]2 | %75
 [E,,E,]4 E,,4 | A,,3 A,, C,A,,C,E, | [A,,A,]2 [A,,A,]2 [D,,D,]2 [E,,E,]2 | %78
 [A,,A,]2 [A,,,A,,]2 [C,,C,]2 [A,,,A,,]2 | [G,,G,]2 [G,,G,]2 [F,,F,]2 [G,,G,]2 | %80
 [A,,A,]2 [E,,E,]2 [C,,C,]2 [A,,,A,,]2 | [F,,F,]2 [F,,F,]2 [E,,E,]2 [D,,D,]2 | [C,,C,]6 [D,,D,]2 | %83
 [E,,E,]4 E,,4 | A,,2 A,,>A,, A,,2 z2 || z8 | z8 | [E,E]2 [D,D]>[C,C] [B,,B,]2 [A,,A,]2 | %88
 [E,,E,]2 [E,,E,]>[E,,E,] [E,,E,]2 E,2 || [A,,A,]2 z2 [E,,E,]2 z2 | [A,,A,]2 C,>D, E,2 [D,,D,]2 | %91
 [E,,E,]2 z2 z2 [E,,E,]2 | [A,,A,]2 [C,,C,]>[D,,D,] [E,,E,]2 E,2 | %93
 [A,,A,]2 z2 [G,,G,]2 [F,,F,]>[G,,G,] | [A,,A,]2 z2 [A,,A,]2 z2 | %95
 [B,,B,]2 [B,,B,]2 [A,,A,]2 [B,,B,]2 | [E,,E,]2 z2 z2 [E,,E,]2 | [C,C]3 [B,,B,] [A,,A,]2 [C,,C,]2 | %98
 [D,,D,]2 [B,,,B,,]2 [C,,C,]2 [A,,,A,,]2 | E,,4 z4 | A,,4 z4 | B,,4 A,,4 | B,,2 A,,2 G,,2 z2 | %103
 A,,4 [D,,D,]2 [E,,E,]2 | A,,2 A,,2 C,2 A,,2 | G,,2 G,,2 F,,2 G,,2 | %106
 A,,2 [E,,E,]2 [C,,C,]2 [A,,,A,,]2 | [F,,F,]2 [F,,F,]2 [E,,E,]2 [D,,D,]2 | [C,,C,]6 [D,,D,]2 | %109
 [E,,E,]4 E,,4 | A,,3 A,, C,A,,C,E, | [A,,A,]2 [A,,A,]2 [D,,D,]2 [E,,E,]2 | %112
 [A,,A,]2 [A,,,A,,]2 [C,,C,]2 [A,,,A,,]2 | [G,,G,]2 [G,,G,]2 [F,,F,]2 [G,,G,]2 | %114
 [A,,A,]2 [E,,E,]2 [C,,C,]2 [A,,,A,,]2 | [F,,F,]2 [F,,F,]2 [E,,E,]2 [D,,D,]2 | [C,,C,]6 [D,,D,]2 | %117
 [E,,E,]4 E,,4 ||[M:6/8] z3 [A,,A,]2- [A,,A,]/[G,,G,]/ | %119
 [C,C][A,,A,][G,,G,] [F,,F,][E,,E,][F,,F,] | [D,,D,]4- [D,,D,][D,,D,]/[D,,D,]/ | %121
 [D,,D,][D,,D,][D,,D,] [D,,D,][D,,D,][D,,D,] | [D,,D,]3/2 z/ z [D,D]2- [D,D]/[C,C]/ | %123
 [F,F][D,D][C,C] [B,,B,][A,,A,][B,,B,] | [=G,,=G,]4- [G,,G,][G,,G,]/[G,,G,]/ | %125
 [=G,,=G,][G,,G,][G,,G,] [G,,G,][G,,G,][G,,G,] |"_dim." [E,,E,]3 [E,,E,]-[E,,E,][E,,E,]/[E,,E,]/ | %127
 [E,,E,][E,,E,][E,,E,] [E,,E,][E,,E,][E,,E,] | [A,,A,]6- | [A,,A,]6 |] %130
V:3
 x2 | x8 | x8 | x8 | x8 | x8 | x8 | x8 | x8 | x8 | x8 | x8 | x8 | x8 | x8 | x8 | x8 || x8 | %18
 x2 (3E[EA][EAc] [Ace]2 [FB=d]2 | x8 | x8 ||[K:A] x8 | x2 [A,C]>[B,D] [CE]2 x2 | x8 | x8 | x8 | %26
 x2 [A,C]>[B,D] [CE]2 x2 | x8 | x [Ee]/[Ee]/ [Ee][Ee]/[Ee]/ x4 | z8 | x8 | %31
 x3 [Ee]/[Ee]/ [Ee][B,B] [Ee]2 | x3 [Aa]/[Aa]/ [Aa][Ee] [Aa]2 | x8 | x8 | x8 | %36
 x [A,A]/[A,A]/ [Cc][Ee] [Aa][Ee][Cc][A,A] | x8 | %38
 x [A,CE]/[A,CE]/ [CEA][EAc] [Ace][EAc][CEA][A,CE] | x8 | x [A,CE]/[A,CE]/ [CEA][EAc] [Ace] x3 | %41
 x [Ee]/[Ee]/ [Ee][Ee] x [Ee]/[Ee]/ [Ee][Ee] | x [A,A]/[A,A]/ [A,A][A,A] [Cc][A,A][Cc][Ee] | x8 | %44
 x [A,CE]/[A,CE]/ [CEA][EAc] [Ace][EAc][Ace][cea] | x8 | %46
 x [A,CE]/[A,CE]/ [CEA][EAc] [Ace][EAc][CEA][A,CE] | x8 | z [A,CE]/[A,CE]/ [CEA][EAc] [Ace] x3 | %49
 x [Ee]/[Ee]/ [Ee][Ee] x [Ee]/[Ee]/ [Ee][Ee] | x8 || x8 | x2 (3E[EA][EAc] [Ace]2 [FBd]2 | x8 | %54
 x8 || x8 | x2 [A,C]>[B,D] [CE]2 x2 | x8 | x8 | x8 | x2 [A,C]>[B,D] [CE]2 x2 | x8 | %62
 x [Ee]/[Ee]/ [Ee][Ee]/[Ee]/ x4 | z8 | x8 | x3 B,/B,/ E/B,/E/G/ BE | x3 E/E/ A/E/A/c/ eA | x8 | %68
 x8 | x8 | x [A,A]/[A,A]/ [Cc][Ee] [Aa][Ee][Cc][A,A] | x8 | %72
 x [A,CE]/[A,CE]/ [CEA][EAc] [Ace][EAc][CEA][A,CE] | x8 | x [A,CE]/[A,CE]/ [CEA][EAc] [Ace] x3 | %75
 x [Ee]/[Ee]/ [Ee][Ee] x [Ee]/[Ee]/ [Ee][Ee] | x [A,A]/[A,A]/ [A,A][A,A] [Cc][A,A][Cc][Ee] | x8 | %78
 x [A,CE]/[A,CE]/ [CEA][EAc] [Ace][EAc][Ace][cea] | x8 | %80
 x [A,CE]/[A,CE]/ [CEA][EAc] [Ace][EAc][CEA][A,CE] | x8 | z [A,CE]/[A,CE]/ [CEA][EAc] [Ace] x3 | %83
 x [Ee]/[Ee]/ [Ee][Ee] x [Ee]/[Ee]/ [Ee][Ee] | x6 z2 || x8 | x8 | %87
 [Ee][Ee]/[Ee]/ [Ee][Ee] [Ee][Ee]/[Ee]/ [Ee][Ee] | x8 || x8 | x2 [A,C]>[B,D] [CE]2 x2 | x8 | x8 | %93
 x8 | x2 [A,C]>[B,D] [CE]2 x2 | x8 | x [Ee]/[Ee]/ [Ee][Ee]/[Ee]/ x4 | z8 | x8 | %99
 x3 (3B/c/^d/ [Ee][B,B][E,E] z | x3 (3e/f/g/ [Aa][Ee][A,A] z | x8 | x8 | x8 | %104
 x [A,A]/[A,A]/ [Cc][Ee] [Aa][Ee][Cc][A,A] | x8 | %106
 x [A,CE]/[A,CE]/ [CEA][EAc] [Ace][EAc][CEA][A,CE] | x8 | x [A,CE]/[A,CE]/ [CEA][EAc] [Ace] x3 | %109
 x [Ee]/[Ee]/ [Ee][Ee] x [Ee]/[Ee]/ [Ee][Ee] | x [A,A]/[A,A]/ [A,A][A,A] [Cc][A,A][Cc][Ee] | x8 | %112
 x [A,CE]/[A,CE]/ [CEA][EAc] [Ace][EAc][Ace][cea] | x8 | %114
 x [A,CE]/[A,CE]/ [CEA][EAc] [Ace][EAc][CEA][A,CE] | x8 | z [A,CE]/[A,CE]/ [CEA][EAc] [Ace] x3 | %117
 x [Ee]/[Ee]/ [Ee][Ee] x [Ee]/[Ee]/ [Ee][Ee] ||[M:6/8] x6 | x6 | x6 | x6 | x6 | x6 | x6 | x6 | x6 | %127
 x6 | x6 | x6 |] %130
V:4
 x2 | x8 | x8 | x8 | x8 | x8 | x8 | x8 | x8 | x8 | x8 | x8 | x8 | x8 | x8 | x8 | x8 || x8 | %18
 E,2 (3[E,,E,][A,,A,][C,C] z4 | x8 | x8 ||[K:A] x8 | x8 | x8 | x8 | x8 | x8 | x8 | x8 | x8 | x8 | %31
 x8 | x8 | x8 | x8 | x8 | x8 | x8 | x8 | x8 | x8 | x8 | x8 | x8 | x8 | x8 | x8 | x8 | x8 | x8 | %50
 x8 || x8 | E,2 (3[E,,E,][A,,A,][C,C] z4 | x8 | x8 || x8 | x8 | x8 | x8 | x8 | x8 | x8 | x8 | x8 | %64
 x8 | x8 | x8 | x8 | x8 | x8 | x8 | x8 | x8 | x8 | x8 | x8 | x8 | x8 | x8 | x8 | x8 | x8 | x8 | %83
 x8 | x6 z2 || x8 | x8 | x8 | x8 || x8 | x8 | x8 | x8 | x8 | x8 | x8 | x8 | x8 | x8 | x8 | x8 | %101
 x8 | x8 | x8 | x8 | x8 | x8 | x8 | x8 | x8 | x8 | x8 | x8 | x8 | x8 | x8 | x8 | x8 ||[M:6/8] x6 | %119
 x6 | x6 | x6 | x6 | x6 | x6 | x6 | x6 | x6 | x6 | x6 |] %130
V:5
 x2 | x8 | x8 | x8 | x8 | x8 | x8 | x8 | x8 | x8 | x8 | x8 | x8 | x8 | x8 | x8 | x8 || x8 | x8 | %19
 x8 | x8 ||[K:A] x8 | x8 | x8 | x8 | x8 | x8 | x8 | [GB]2 [=G_B]2 [E^G=Be]2 x2 | x8 | x8 | x8 | %32
 x8 | x8 | x8 | x8 | x8 | x8 | x8 | x8 | x8 | x8 | x8 | x8 | x8 | x8 | x8 | x8 | x8 | x8 | x8 || %51
 x8 | x8 | x8 | x8 || x8 | x8 | x8 | x8 | x8 | x8 | x8 | [GB]2 [=G_B]2 [E^G=Be]2 x2 | x8 | x8 | %65
 x8 | x8 | x8 | x8 | x8 | x8 | x8 | x8 | x8 | x8 | x8 | x8 | x8 | x8 | x8 | x8 | x8 | x8 | x8 | %84
 x6 z2 || x8 | x8 | x8 | x8 || x8 | x8 | x8 | x8 | x8 | x8 | x8 | [GB]2 [=G_B]2 [E^G=Be]2 x2 | x8 | %98
 x8 | x8 | x8 | x8 | x8 | x8 | x8 | x8 | x8 | x8 | x8 | x8 | x8 | x8 | x8 | x8 | x8 | x8 | x8 | %117
 x8 ||[M:6/8] x6 | x6 | x6 | x6 | x6 | x6 | x6 | x6 | x6 | x6 | x6 | x6 |] %130

